SVG/try.svg

<?xml version="1.0" encoding="utf-8"?>
<!-- Generated by IcoMoon.io -->
<!DOCTYPE svg PUBLIC "-//W3C//DTD SVG 1.1//EN" "http://www.w3.org/Graphics/SVG/1.1/DTD/svg11.dtd">
<svg version="1.1" xmlns="http://www.w3.org/2000/svg" xmlns:xlink="http://www.w3.org/1999/xlink" width="9" height="14" viewBox="0 0 9 14">
<path fill="#444444" d="M9 6.5q0 1.492-0.738 2.758t-2.004 2.004-2.758 0.738h-1.25q-0.109 0-0.18-0.070t-0.070-0.18v-4.773l-1.68 0.516q-0.023 0.008-0.070 0.008-0.078 0-0.148-0.047-0.102-0.078-0.102-0.203v-1q0-0.18 0.18-0.242l1.82-0.555v-0.727l-1.68 0.516q-0.023 0.008-0.070 0.008-0.078 0-0.148-0.047-0.102-0.078-0.102-0.203v-1q0-0.18 0.18-0.242l1.82-0.555v-1.953q0-0.109 0.070-0.18t0.18-0.070h1.25q0.109 0 0.18 0.070t0.070 0.18v1.414l2.93-0.906q0.117-0.039 0.219 0.039t0.102 0.203v1q0 0.18-0.18 0.242l-3.070 0.945v0.727l2.93-0.906q0.117-0.039 0.219 0.039t0.102 0.203v1q0 0.18-0.18 0.242l-3.070 0.945v3.805q1.469-0.102 2.484-1.18t1.016-2.563q0-0.109 0.070-0.18t0.18-0.070h1.25q0.109 0 0.18 0.070t0.070 0.18z"></path>
</svg>

<svg xmlns="http://www.w3.org/2000/svg" viewBox="0 0 9 14"><path d="M9 6.5q0 1.492-.738 2.758t-2.004 2.004T3.5 12H2.25q-.11 0-.18-.07T2 11.75V6.977l-1.68.516Q.297 7.5.25 7.5q-.078 0-.148-.046Q0 7.376 0 7.25v-1q0-.18.18-.24L2 5.453v-.727l-1.68.516q-.023.008-.07.008-.078 0-.148-.046Q0 5.126 0 5V4q0-.18.18-.24L2 3.203V1.25q0-.108.07-.18T2.25 1H3.5q.11 0 .18.07t.07.18v1.415l2.93-.906q.117-.04.22.037T7 2v1q0 .18-.18.243l-3.07.945v.727l2.93-.906q.118-.04.22.037t.102.203v1q0 .18-.18.243l-3.07.945v3.805q1.47-.102 2.484-1.18T7.252 6.5q0-.11.07-.18t.18-.07h1.25q.11 0 .18.07t.07.18z" /></svg>
